X: 1307
T:Gan Ainm
R:Jig
M:6/8
D:Session tape, Doolin 1987
H:Played with 43. Rare examples of 'true' Em tunes. Probably made up
Z:Bernie Stocks
K:Em
EFG ABc | B2E FGA | cBA BdB | AGE E2B | EFG A2A |
BEF GAB | cBA BdB | AGE E3 :| Bee edB | dBA GAe |
Bee edB | dBA A3 |1 Bee edB | dBA GAe | cBA BdB |
AGE E3 :|2 G2g dee | dBA GAc | cBA BdB | AGE E3 ||
